copytrade/img/icomoon/team.svg

<svg width="24" height="24" viewBox="0 0 24 24" fill="none" xmlns="http://www.w3.org/2000/svg">
<path fill-rule="evenodd" clip-rule="evenodd" d="M5.49334 15.0686C6.32988 14.0388 7.61458 13.25 9.49992 13.25C11.3853 13.25 12.67 14.0388 13.5065 15.0686C14.3183 16.068 14.6827 17.2591 14.8494 18.079C15.0711 19.1692 14.1804 20 13.2182 20H5.7816C4.81942 20 3.92878 19.1692 4.15045 18.0791C4.31718 17.2591 4.68155 16.0681 5.49334 15.0686Z" fill="#A6ACB7"/>
<path fill-rule="evenodd" clip-rule="evenodd" d="M15.0708 13.6819C15.1943 13.4183 15.459 13.25 15.75 13.25C17.0972 13.25 18.0357 13.9642 18.6503 14.8349C19.2493 15.6834 19.5753 16.719 19.7561 17.5334C20.0599 18.9017 18.9529 19.9772 17.7163 19.9996C17.6973 20.0014 17.6716 20.0036 17.6407 20.006C17.5744 20.0112 17.4822 20.0174 17.3769 20.0215C17.1809 20.0292 16.8856 20.0325 16.6279 19.99C16.3719 19.9477 16.1559 19.7762 16.0568 19.5364C15.9578 19.2966 15.9897 19.0226 16.1412 18.812C16.4256 18.4167 16.5227 17.7342 16.3335 16.8638C16.1492 16.0163 15.7205 15.1362 15.1738 14.4801C14.9875 14.2566 14.9474 13.9454 15.0708 13.6819Z" fill="#A6ACB7"/>
<path fill-rule="evenodd" clip-rule="evenodd" d="M6 7.5C6 5.567 7.567 4 9.5 4C11.433 4 13 5.567 13 7.5C13 9.433 11.433 11 9.5 11C7.567 11 6 9.433 6 7.5Z" fill="#A6ACB7"/>
<path fill-rule="evenodd" clip-rule="evenodd" d="M14.1416 4.31147C14.2825 4.11589 14.5089 4 14.75 4C16.7744 4 18 5.66472 18 7.5C18 9.33528 16.7744 11 14.75 11C14.5089 11 14.2825 10.8841 14.1416 10.6885C14.0006 10.493 13.9623 10.2415 14.0385 10.0128C14.4051 8.91308 14.5625 8.19146 14.5625 7.5C14.5625 6.80854 14.4051 6.08692 14.0385 4.98717C13.9623 4.75846 14.0006 4.50704 14.1416 4.31147Z" fill="#A6ACB7"/>
</svg>

<svg width="24" height="24" fill="none" xmlns="http://www.w3.org/2000/svg"><path fill-rule="evenodd" clip-rule="evenodd" d="M5.493 15.069c.837-1.03 2.122-1.819 4.007-1.819 1.885 0 3.17.789 4.007 1.819.811.999 1.176 2.19 1.342 3.01.222 1.09-.669 1.921-1.63 1.921H5.781c-.963 0-1.853-.83-1.632-1.92.167-.82.532-2.012 1.343-3.011zm9.577-1.387a.75.75 0 01.68-.432c1.347 0 2.286.714 2.9 1.585.6.848.925 1.884 1.106 2.698.304 1.369-.803 2.444-2.04 2.467a3.932 3.932 0 01-1.088-.01.75.75 0 01-.487-1.178c.285-.395.382-1.078.193-1.948a5.795 5.795 0 00-1.16-2.384.75.75 0 01-.103-.798zM6 7.5a3.5 3.5 0 117 0 3.5 3.5 0 01-7 0zm8.142-3.189A.75.75 0 0114.75 4C16.774 4 18 5.665 18 7.5S16.774 11 14.75 11a.75.75 0 01-.711-.987c.366-1.1.524-1.822.524-2.513 0-.691-.158-1.413-.524-2.513a.75.75 0 01.103-.676z" fill="#A6ACB7"/></svg>
